X: 10
M: 2/4
L: 1/16
K: F
|:\
f2ga g2fe | d2ef =B2cd | BA=Bc dfed | Td4 c4 |\
g2fe dfed | Td4 c4 :|
[|\
cdef g2c2 | B2AG A2GF | defg a2^c2 | dfed c2^A2 |\
^fgaf g2de | fagf e2dc | B2AG A2fe | dcBA G4 |\

